dist/img/hero/bg.svg

<svg width="1728" height="982" fill="none" xmlns="http://www.w3.org/2000/svg"><path d="M.997 164.497L99.64 2.991l139.457 232.825 51.679-91.708 114.512 191.645 50.083-90.973 119.685 195.29 110.562 177.045H581.211L490.865 478.94l-98.816 14.467-94.275-149.086-51.639 84.684-50.246-84.684-90.72-147.687-52.517 39.182L.997 277.153V164.497z" fill="#F4F4F4"/><path d="M187.349 415.73l-57.799 41.872L0 495.486V982l581.211-25L1319 837.5 1728 654V0l-163.43 167.488-149.48 131.598-134.49-51.711-226.26 143.431-290.991-39.878-284.013 73.775-190.339-86.735-50.824 39.878-50.824 37.884z" fill="#FBF4E7"/><path fill-rule="evenodd" clip-rule="evenodd" d="M1508.9 185.649h-19.73v19.74h-4.42v-19.74h-19.74v-4.426h19.74v-19.74h4.42v19.74h19.73v4.426z" fill="#F4F4F4"/><path fill-rule="evenodd" clip-rule="evenodd" d="M1055.83 760.622c5.25 0 9.53 4.277 9.53 9.526 0 5.248-4.28 9.525-9.53 9.525-5.24 0-9.52-4.277-9.52-9.525 0-5.249 4.28-9.526 9.52-9.526zm544.11-440.654c5.25 0 9.53 4.277 9.53 9.526s-4.28 9.526-9.53 9.526c-5.24 0-9.52-4.277-9.52-9.526s4.28-9.526 9.52-9.526zM489.8 524.343c5.246 0 9.522 4.277 9.522 9.526s-4.276 9.526-9.522 9.526c-5.247 0-9.522-4.277-9.522-9.526s4.275-9.526 9.522-9.526z" fill="#F8BF5F"/><path fill-rule="evenodd" clip-rule="evenodd" d="M86.699 874.508c4.843 0 8.79 3.948 8.79 8.793 0 4.845-3.947 8.793-8.79 8.793-4.843 0-8.79-3.948-8.79-8.793 0-4.845 3.947-8.793 8.79-8.793z" fill="#D9D9D9"/><path fill-rule="evenodd" clip-rule="evenodd" d="M1509.76 867.296c3.87 0 7.03 3.158 7.03 7.034s-3.16 7.035-7.03 7.035c-3.88 0-7.03-3.159-7.03-7.035 0-3.876 3.15-7.034 7.03-7.034z" fill="#EAEAEA"/><path fill-rule="evenodd" clip-rule="evenodd" d="M112.039 329.695l-5.572-6.816-6.776 5.544 5.572 6.816 6.776-5.544zm9.516-7.786l-5.571-6.816-6.777 5.544 5.572 6.816 6.776-5.544zm1.007 15.064l6.776-5.543-5.542-6.779-6.776 5.543 5.542 6.779zm-9.517 7.786l6.814-5.574-5.542-6.779-6.813 5.574 5.541 6.779zm26.187-12.337l-27.215 22.266-22.227-27.19 27.216-22.266 22.226 27.19z" fill="#FCE3BA"/></svg>

<svg width="1728" height="982" viewBox="0 0 1728 982" fill="none" xmlns="http://www.w3.org/2000/svg">
<path d="M0.99654 164.497L99.6405 2.99086L239.098 235.816L290.777 144.108L405.289 335.753L455.372 244.78L575.057 440.07L685.619 617.115H581.211L490.865 478.94L392.049 493.407L297.774 344.321L246.135 429.005L195.889 344.321L105.169 196.634L52.6517 235.816L0.99654 277.153V164.497Z" fill="#F4F4F4"/>
<path d="M187.349 415.73L129.55 457.602L0 495.486V982L581.211 957L1319 837.5L1728 654V0L1564.57 167.488L1415.09 299.086L1280.6 247.375L1054.34 390.806L763.349 350.928L479.336 424.703L288.997 337.968L238.173 377.846L187.349 415.73Z" fill="#FBF4E7"/>
<path fill-rule="evenodd" clip-rule="evenodd" d="M1508.9 185.649H1489.17V205.389H1484.75V185.649H1465.01V181.223H1484.75V161.483H1489.17V181.223H1508.9V185.649Z" fill="#F4F4F4"/>
<path fill-rule="evenodd" clip-rule="evenodd" d="M1055.83 760.622C1061.08 760.622 1065.36 764.899 1065.36 770.148C1065.36 775.396 1061.08 779.673 1055.83 779.673C1050.59 779.673 1046.31 775.396 1046.31 770.148C1046.31 764.899 1050.59 760.622 1055.83 760.622Z" fill="#F8BF5F"/>
<path fill-rule="evenodd" clip-rule="evenodd" d="M1599.94 319.968C1605.19 319.968 1609.47 324.245 1609.47 329.494C1609.47 334.743 1605.19 339.02 1599.94 339.02C1594.7 339.02 1590.42 334.743 1590.42 329.494C1590.42 324.245 1594.7 319.968 1599.94 319.968Z" fill="#F8BF5F"/>
<path fill-rule="evenodd" clip-rule="evenodd" d="M489.8 524.343C495.046 524.343 499.322 528.62 499.322 533.869C499.322 539.118 495.046 543.395 489.8 543.395C484.553 543.395 480.278 539.118 480.278 533.869C480.278 528.62 484.553 524.343 489.8 524.343Z" fill="#F8BF5F"/>
<path fill-rule="evenodd" clip-rule="evenodd" d="M86.6986 874.508C91.5418 874.508 95.4881 878.456 95.4881 883.301C95.4881 888.146 91.5418 892.094 86.6986 892.094C81.8555 892.094 77.9092 888.146 77.9092 883.301C77.9092 878.456 81.8555 874.508 86.6986 874.508Z" fill="#D9D9D9"/>
<path fill-rule="evenodd" clip-rule="evenodd" d="M1509.76 867.296C1513.63 867.296 1516.79 870.454 1516.79 874.33C1516.79 878.206 1513.63 881.365 1509.76 881.365C1505.88 881.365 1502.73 878.206 1502.73 874.33C1502.73 870.454 1505.88 867.296 1509.76 867.296Z" fill="#EAEAEA"/>
<path fill-rule="evenodd" clip-rule="evenodd" d="M112.039 329.695L106.467 322.879L99.6911 328.423L105.263 335.239L112.039 329.695ZM121.555 321.909L115.984 315.093L109.207 320.637L114.779 327.453L121.555 321.909ZM122.562 336.973L129.338 331.43L123.796 324.651L117.02 330.194L122.562 336.973ZM113.045 344.759L119.859 339.185L114.317 332.406L107.504 337.98L113.045 344.759ZM139.232 332.422L112.017 354.688L89.7898 327.498L117.006 305.232L139.232 332.422Z" fill="#FCE3BA"/>
</svg>
